img/deco-body.svg

<svg width="430" height="129" viewBox="0 0 430 129" fill="none" xmlns="http://www.w3.org/2000/svg">
<g opacity="0.25">
<path d="M165 0.5C238.161 0.5 304.385 4.97615 352.309 12.21C376.274 15.8275 395.642 20.1318 409.007 24.9014C415.692 27.2872 420.846 29.779 424.319 32.3408C427.806 34.9124 429.5 37.4787 429.5 40C429.5 42.5213 427.806 45.0876 424.319 47.6592C420.846 50.221 415.692 52.7128 409.007 55.0986C395.642 59.8682 376.274 64.1725 352.309 67.79C304.385 75.0238 238.161 79.5 165 79.5C91.8393 79.5 25.6154 75.0238 -22.3086 67.79C-46.2745 64.1725 -65.6418 59.8682 -79.0068 55.0986C-85.6923 52.7128 -90.8463 50.221 -94.3193 47.6592C-97.8055 45.0876 -99.5 42.5213 -99.5 40C-99.5 37.4787 -97.8055 34.9124 -94.3193 32.3408C-90.8463 29.779 -85.6923 27.2872 -79.0068 24.9014C-65.6418 20.1318 -46.2745 15.8275 -22.3086 12.21C25.6154 4.97615 91.8393 0.5 165 0.5Z" stroke="white"/>
<path d="M165 12.5C238.161 12.5 304.385 16.9762 352.309 24.21C376.274 27.8275 395.642 32.1318 409.007 36.9014C415.692 39.2872 420.846 41.779 424.319 44.3408C427.806 46.9124 429.5 49.4787 429.5 52C429.5 54.5213 427.806 57.0876 424.319 59.6592C420.846 62.221 415.692 64.7128 409.007 67.0986C395.642 71.8682 376.274 76.1725 352.309 79.79C304.385 87.0238 238.161 91.5 165 91.5C91.8393 91.5 25.6154 87.0238 -22.3086 79.79C-46.2745 76.1725 -65.6418 71.8682 -79.0068 67.0986C-85.6923 64.7128 -90.8463 62.221 -94.3193 59.6592C-97.8055 57.0876 -99.5 54.5213 -99.5 52C-99.5 49.4787 -97.8055 46.9124 -94.3193 44.3408C-90.8463 41.779 -85.6923 39.2872 -79.0068 36.9014C-65.6418 32.1318 -46.2745 27.8275 -22.3086 24.21C25.6154 16.9762 91.8393 12.5 165 12.5Z" stroke="white"/>
<path d="M165 25.5C238.161 25.5 304.385 29.9762 352.309 37.21C376.274 40.8275 395.642 45.1318 409.007 49.9014C415.692 52.2872 420.846 54.779 424.319 57.3408C427.806 59.9124 429.5 62.4787 429.5 65C429.5 67.5213 427.806 70.0876 424.319 72.6592C420.846 75.221 415.692 77.7128 409.007 80.0986C395.642 84.8682 376.274 89.1725 352.309 92.79C304.385 100.024 238.161 104.5 165 104.5C91.8393 104.5 25.6154 100.024 -22.3086 92.79C-46.2745 89.1725 -65.6418 84.8682 -79.0068 80.0986C-85.6923 77.7128 -90.8463 75.221 -94.3193 72.6592C-97.8055 70.0876 -99.5 67.5213 -99.5 65C-99.5 62.4787 -97.8055 59.9124 -94.3193 57.3408C-90.8463 54.779 -85.6923 52.2872 -79.0068 49.9014C-65.6418 45.1318 -46.2745 40.8275 -22.3086 37.21C25.6154 29.9762 91.8393 25.5 165 25.5Z" stroke="white"/>
<path d="M165 37.5C238.161 37.5 304.385 41.9762 352.309 49.21C376.274 52.8275 395.642 57.1318 409.007 61.9014C415.692 64.2872 420.846 66.779 424.319 69.3408C427.806 71.9124 429.5 74.4787 429.5 77C429.5 79.5213 427.806 82.0876 424.319 84.6592C420.846 87.221 415.692 89.7128 409.007 92.0986C395.642 96.8682 376.274 101.173 352.309 104.79C304.385 112.024 238.161 116.5 165 116.5C91.8393 116.5 25.6154 112.024 -22.3086 104.79C-46.2745 101.173 -65.6418 96.8682 -79.0068 92.0986C-85.6923 89.7128 -90.8463 87.221 -94.3193 84.6592C-97.8055 82.0876 -99.5 79.5213 -99.5 77C-99.5 74.4787 -97.8055 71.9124 -94.3193 69.3408C-90.8463 66.779 -85.6923 64.2872 -79.0068 61.9014C-65.6418 57.1318 -46.2745 52.8275 -22.3086 49.21C25.6154 41.9762 91.8393 37.5 165 37.5Z" stroke="white"/>
<path d="M165 49.5C238.161 49.5 304.385 53.9762 352.309 61.21C376.274 64.8275 395.642 69.1318 409.007 73.9014C415.692 76.2872 420.846 78.779 424.319 81.3408C427.806 83.9124 429.5 86.4787 429.5 89C429.5 91.5213 427.806 94.0876 424.319 96.6592C420.846 99.221 415.692 101.713 409.007 104.099C395.642 108.868 376.274 113.173 352.309 116.79C304.385 124.024 238.161 128.5 165 128.5C91.8393 128.5 25.6154 124.024 -22.3086 116.79C-46.2745 113.173 -65.6418 108.868 -79.0068 104.099C-85.6923 101.713 -90.8463 99.221 -94.3193 96.6592C-97.8055 94.0876 -99.5 91.5213 -99.5 89C-99.5 86.4787 -97.8055 83.9124 -94.3193 81.3408C-90.8463 78.779 -85.6923 76.2872 -79.0068 73.9014C-65.6418 69.1318 -46.2745 64.8275 -22.3086 61.21C25.6154 53.9762 91.8393 49.5 165 49.5Z" stroke="white"/>
</g>
</svg>

<svg xmlns="http://www.w3.org/2000/svg" width="430" height="129" fill="none" viewBox="0 0 430 129"><g stroke="#fff" opacity=".25"><path d="M165 .5c73.161 0 139.385 4.476 187.309 11.71 23.965 3.617 43.333 7.922 56.698 12.691 6.685 2.386 11.839 4.878 15.312 7.44 3.487 2.571 5.181 5.138 5.181 7.659s-1.694 5.088-5.181 7.66c-3.473 2.561-8.627 5.053-15.312 7.439-13.365 4.77-32.733 9.074-56.698 12.691C304.385 75.024 238.161 79.5 165 79.5c-73.16 0-139.385-4.476-187.309-11.71-23.966-3.618-43.333-7.922-56.698-12.691-6.685-2.386-11.84-4.878-15.312-7.44C-97.805 45.088-99.5 42.521-99.5 40s1.695-5.088 5.18-7.66c3.474-2.561 8.628-5.053 15.313-7.439 13.365-4.77 32.733-9.073 56.698-12.691C25.615 4.976 91.84.5 165 .5Z"/><path d="M165 12.5c73.161 0 139.385 4.476 187.309 11.71 23.965 3.617 43.333 7.922 56.698 12.691 6.685 2.386 11.839 4.878 15.312 7.44 3.487 2.571 5.181 5.138 5.181 7.659s-1.694 5.088-5.181 7.66c-3.473 2.561-8.627 5.053-15.312 7.439-13.365 4.77-32.733 9.073-56.698 12.691C304.385 87.024 238.161 91.5 165 91.5c-73.16 0-139.385-4.476-187.309-11.71-23.966-3.618-43.333-7.922-56.698-12.691-6.685-2.386-11.84-4.878-15.312-7.44C-97.805 57.088-99.5 54.521-99.5 52s1.695-5.088 5.18-7.66c3.474-2.561 8.628-5.053 15.313-7.439 13.365-4.77 32.733-9.074 56.698-12.691C25.615 16.976 91.84 12.5 165 12.5Z"/><path d="M165 25.5c73.161 0 139.385 4.476 187.309 11.71 23.965 3.617 43.333 7.922 56.698 12.691 6.685 2.386 11.839 4.878 15.312 7.44 3.487 2.571 5.181 5.138 5.181 7.659s-1.694 5.088-5.181 7.66c-3.473 2.561-8.627 5.053-15.312 7.439-13.365 4.77-32.733 9.073-56.698 12.691C304.385 100.024 238.161 104.5 165 104.5c-73.16 0-139.385-4.476-187.309-11.71-23.966-3.618-43.333-7.922-56.698-12.691-6.685-2.386-11.84-4.878-15.312-7.44C-97.805 70.088-99.5 67.521-99.5 65s1.695-5.088 5.18-7.66c3.474-2.561 8.628-5.053 15.313-7.439 13.365-4.77 32.733-9.074 56.698-12.691C25.615 29.976 91.84 25.5 165 25.5Z"/><path d="M165 37.5c73.161 0 139.385 4.476 187.309 11.71 23.965 3.617 43.333 7.922 56.698 12.691 6.685 2.386 11.839 4.878 15.312 7.44 3.487 2.571 5.181 5.138 5.181 7.659s-1.694 5.088-5.181 7.66c-3.473 2.561-8.627 5.053-15.312 7.439-13.365 4.77-32.733 9.074-56.698 12.691C304.385 112.024 238.161 116.5 165 116.5c-73.16 0-139.385-4.476-187.309-11.71-23.966-3.617-43.333-7.922-56.698-12.691-6.685-2.386-11.84-4.878-15.312-7.44C-97.805 82.088-99.5 79.521-99.5 77s1.695-5.088 5.18-7.66c3.474-2.561 8.628-5.053 15.313-7.439 13.365-4.77 32.733-9.074 56.698-12.691C25.615 41.976 91.84 37.5 165 37.5Z"/><path d="M165 49.5c73.161 0 139.385 4.476 187.309 11.71 23.965 3.617 43.333 7.922 56.698 12.691 6.685 2.386 11.839 4.878 15.312 7.44 3.487 2.571 5.181 5.138 5.181 7.659s-1.694 5.088-5.181 7.66c-3.473 2.561-8.627 5.053-15.312 7.439-13.365 4.769-32.733 9.074-56.698 12.691C304.385 124.024 238.161 128.5 165 128.5c-73.16 0-139.385-4.476-187.309-11.71-23.966-3.617-43.333-7.922-56.698-12.691-6.685-2.386-11.84-4.878-15.312-7.44C-97.805 94.088-99.5 91.521-99.5 89s1.695-5.088 5.18-7.66c3.474-2.561 8.628-5.053 15.313-7.439 13.365-4.77 32.733-9.073 56.698-12.691C25.615 53.976 91.84 49.5 165 49.5Z"/></g></svg>
